my-app/src/app/media/instagram_logo.svg

<svg width="17" height="19" viewBox="0 0 17 19" fill="none" xmlns="http://www.w3.org/2000/svg">
<g clip-path="url(#clip0_9671_2244)">
<path d="M8.03359 5.69463C5.76216 5.69463 3.93002 7.49814 3.93002 9.73408C3.93002 11.97 5.76216 13.7735 8.03359 13.7735C10.305 13.7735 12.1372 11.97 12.1372 9.73408C12.1372 7.49814 10.305 5.69463 8.03359 5.69463ZM8.03359 12.3602C6.56573 12.3602 5.36573 11.1825 5.36573 9.73408C5.36573 8.28564 6.56216 7.10791 8.03359 7.10791C9.50502 7.10791 10.7014 8.28564 10.7014 9.73408C10.7014 11.1825 9.50144 12.3602 8.03359 12.3602ZM13.2622 5.52939C13.2622 6.05322 12.8336 6.47158 12.305 6.47158C11.7729 6.47158 11.3479 6.0497 11.3479 5.52939C11.3479 5.00908 11.7764 4.58721 12.305 4.58721C12.8336 4.58721 13.2622 5.00908 13.2622 5.52939ZM15.98 6.48564C15.9193 5.22353 15.6264 4.10557 14.6872 3.18447C13.7514 2.26338 12.6157 1.9751 11.3336 1.91182C10.0122 1.83799 6.05145 1.83799 4.73002 1.91182C3.45145 1.97158 2.31574 2.25986 1.37645 3.18096C0.437165 4.10205 0.147879 5.22002 0.0835937 6.48213C0.00859376 7.78291 0.00859376 11.6817 0.0835937 12.9825C0.144308 14.2446 0.437165 15.3626 1.37645 16.2837C2.31574 17.2048 3.44788 17.4931 4.73002 17.5563C6.05145 17.6302 10.0122 17.6302 11.3336 17.5563C12.6157 17.4966 13.7514 17.2083 14.6872 16.2837C15.6229 15.3626 15.9157 14.2446 15.98 12.9825C16.055 11.6817 16.055 7.78642 15.98 6.48564ZM14.2729 14.3782C13.9943 15.0673 13.455 15.5981 12.7514 15.8759C11.6979 16.2872 9.19787 16.1923 8.03359 16.1923C6.8693 16.1923 4.36573 16.2837 3.31573 15.8759C2.61573 15.6017 2.07645 15.0708 1.79431 14.3782C1.37645 13.3411 1.47288 10.8802 1.47288 9.73408C1.47288 8.58798 1.38002 6.12353 1.79431 5.08994C2.07288 4.40088 2.61216 3.87002 3.31573 3.59228C4.36931 3.18096 6.8693 3.27588 8.03359 3.27588C9.19787 3.27588 11.7014 3.18447 12.7514 3.59228C13.4514 3.8665 13.9907 4.39736 14.2729 5.08994C14.6907 6.12705 14.5943 8.58798 14.5943 9.73408C14.5943 10.8802 14.6907 13.3446 14.2729 14.3782Z" fill="white"/>
</g>
<defs>
<clipPath id="clip0_9671_2244">
<rect width="16" height="18" fill="white" transform="translate(0.0292969 0.737305)"/>
</clipPath>
</defs>
</svg>

<svg xmlns="http://www.w3.org/2000/svg" width="17" height="19" fill="none"><g clip-path="url(#a)"><path fill="#fff" d="M8.034 5.695c-2.272 0-4.104 1.803-4.104 4.04 0 2.235 1.832 4.039 4.104 4.039 2.271 0 4.103-1.804 4.103-4.04s-1.832-4.04-4.103-4.04m0 6.665c-1.468 0-2.668-1.178-2.668-2.626s1.196-2.626 2.668-2.626c1.471 0 2.667 1.178 2.667 2.626s-1.2 2.626-2.667 2.626m5.228-6.83a.95.95 0 0 1-.957.942.95.95 0 0 1-.957-.943.95.95 0 0 1 .957-.942.95.95 0 0 1 .957.942m2.718.956c-.06-1.262-.354-2.38-1.293-3.302-.936-.92-2.071-1.209-3.353-1.272-1.322-.074-5.283-.074-6.604 0-1.279.06-2.414.348-3.354 1.269C.437 4.102.148 5.22.084 6.482c-.075 1.3-.075 5.2 0 6.5.06 1.263.353 2.38 1.292 3.302.94.92 2.072 1.21 3.354 1.272 1.321.074 5.282.074 6.604 0 1.282-.06 2.417-.348 3.353-1.272.936-.921 1.229-2.04 1.293-3.301.075-1.301.075-5.197 0-6.497m-1.707 7.892a2.68 2.68 0 0 1-1.522 1.498c-1.053.411-3.553.316-4.717.316-1.165 0-3.668.092-4.718-.316a2.68 2.68 0 0 1-1.522-1.498c-.418-1.037-.321-3.498-.321-4.644s-.093-3.61.321-4.644a2.68 2.68 0 0 1 1.522-1.498c1.053-.411 3.553-.316 4.718-.316 1.164 0 3.667-.092 4.717.316.7.274 1.24.805 1.522 1.498.418 1.037.321 3.498.321 4.644s.097 3.61-.321 4.644"/></g><defs><clipPath id="a"><path fill="#fff" d="M.03.737h16v18h-16z"/></clipPath></defs></svg>
